**kern	**text	**kern	**text	**kern	**text	**kern	**text	**kern	**text	**cdata-harm
*staff5	*staff5	*staff4	*staff4	*staff3	*staff3	*staff2	*staff2	*staff1	*staff1	*
=1-	=1-	=1-	=1-	=1-	=1-	=1-	=1-	=1-	=1-	=1-
*clefF4	*	*clefGv2	*	*clefGv2	*	*clefGv2	*	*clefG2	*	*
*k[b-]	*	*k[b-]	*	*k[b-]	*	*k[b-]	*	*k[b-]	*	*
*M4/4	*	*M4/4	*	*M4/4	*	*M4/4	*	*M4/4	*	*
1FF/	Co-	1A/	Co-	1F/	Co-	1c\	Co-	1f/	Co-	<HOM_5v
=2	=2	=2	=2	=2	=2	=2	=2	=2	=2	.
2C/	mehor	2G/	mehor	2E/	mehor	2c\	mehor	2g/	mehor	.
2GG/	la	2B-\	la	2G/	la	2d\	la	2g/	la	.
=3	=3	=3	=3	=3	=3	=3	=3	=3	=3	.
1D\	ter-	1A/	ter-	1F/	ter-	1d\	ter-	1a/	ter-	.
=4	=4	=4	=4	=4	=4	=4	=4	=4	=4	.
1AA/	ra	2A/	ra	1E/	ra	2c\	ra	2a/	ra	>
.	.	[2A/	no-	.	.	[2e\	no-	[2cc\	no-	<HOM_3v
=5	=5	=5	=5	=5	=5	=5	=5	=5	=5	.
1r	.	4A/]	.	1r	.	4e\]	.	4cc\]	.	.
.	.	4d\	veher-	.	.	4f\	veher-	4a/	veher-	.
.	.	4G/	bet-	.	.	4d\	bet-	4b-\	bet-	.
.	.	4F/	tee	.	.	[4f\	tee	4a/	tee	.
=6	=6	=6	=6	=6	=6	=6	=6	=6	=6	.
1r	.	2c\	fio-	1r	.	4f\]	.	2g/	fio-	.
.	.	.	.	.	.	4e\	fio-	.	.	.
.	.	4F/	ri	.	.	4f\	ri	4a/	ri	.
.	.	[4B-\	Lie-	.	.	[4d\	Lie-	[4f/	Lie-	.
=7	=7	=7	=7	=7	=7	=7	=7	=7	=7	.
1r	.	8B-\L]	.	1r	.	8d\L]	.	8f/L]	.	.
.	.	8B-\J	ta	.	.	8d\J	ta	8f/J	ta	.
.	.	4A/	pro-	.	.	[4f\	pro-	4a/	pro-	.
.	.	2G/	du-	.	.	8f\L]	.	2b-\	du-	.
.	.	.	.	.	.	16e\L	.	.	.	.
.	.	.	.	.	.	16d\JJ	.	.	.	.
.	.	.	.	.	.	4e\	du-	.	.	.
=8	=8	=8	=8	=8	=8	=8	=8	=8	=8	.
2r	.	2F/	ce	2r	.	2f\	ce	2a/	ce	>
[2C/	no-	[2G/	no-	[2E/	no-	[2c\	no-	[2g/	no-	<HOM_5v
=9	=9	=9	=9	=9	=9	=9	=9	=9	=9	.
4C/]	.	4G/]	.	4E/]	.	4c\]	.	4g/]	.	.
4AA/	veher-	4C/	veher-	4F/	veher-	4c\	veher-	4a/	veher-	.
4BB-/	bet-	4F/	bet-	4D/	bet-	4d\	bet-	4f/	bet-	.
4AA/	tee	4C/	tee	[4F/	tee	4c\	tee	4f/	tee	.
=10	=10	=10	=10	=10	=10	=10	=10	=10	=10	.
2GG/	fio-	2G/	fio-	4F/]	.	2B-\	fio-	2g/	fio-	.
.	.	.	.	4E/	fio-	.	.	.	.	.
4FF/	ri	4c\	ri	4F/	ri	4A/	ri	4a/	ri	.
[4C/	Lie-	[4c\	Lie-	[4G/	Lie-	[4e\	Lie-	[4g/	Lie-	.
=11	=11	=11	=11	=11	=11	=11	=11	=11	=11	.
8C/L]	.	8c\L]	.	8G/L]	.	8e\L]	.	8g/L]	.	.
8C/J	ta	8c\J	ta	8G/J	ta	8e\J	ta	8g/J	ta	.
4E\	pro-	4c\	pro-	4G/	pro-	4c\	pro-	4cc\	pro-	.
2F\	du-	2c\	du-	2F/	du-	2f\	du-	2a/	du-	.
=12	=12	=12	=12	=12	=12	=12	=12	=12	=12	.
[1C/	ce	2c\	ce	[1G/	ce	4e\	ce	1g/	ce	>
.	.	.	.	.	.	4c\	e	.	.	<CON_5v
.	.	4r	.	.	.	4.e\	van	.	.	.
.	.	4c\	e	.	.	.	.	.	.	.
.	.	.	.	.	.	8f\	scher-	.	.	.
=13	=13	=13	=13	=13	=13	=13	=13	=13	=13	.
1C/]	.	4.e\	van	1G/]	.	4g\	zan-	4r	.	.
.	.	.	.	.	.	4g\	doe	4c/	e	.
.	.	8f\	scher-	.	.	.	.	.	.	.
.	.	4g\	zan-	.	.	4.c\	van	4.e/	van	.
.	.	4g\	doe	.	.	.	.	.	.	.
.	.	.	.	.	.	8d\	scher-	8f/	scher-	.
=14	=14	=14	=14	=14	=14	=14	=14	=14	=14	.
1r	.	2c\	van	1r	.	4e\	zan	4g/	zan	.
.	.	.	.	.	.	4e\	doin	4g/	doin-	.
.	.	8F/L	scher-	.	.	2f\	sie-	2a/	sie-	.
.	.	8G/J	zan-	.	.	.	.	.	.	.
.	.	8A/L	doin-	.	.	.	.	.	.	.
.	.	8B-/J	sie-	.	.	.	.	.	.	.
=15	=15	=15	=15	=15	=15	=15	=15	=15	=15	.
4r	.	2c\	me	1r	.	[1e\	me	[1g/	me	.
4C/	e	.	.	.	.	.	.	.	.	.
4.E\	van	2C/	e	.	.	.	.	.	.	.
8F\	scher-	.	.	.	.	.	.	.	.	.
=16	=16	=16	=16	=16	=16	=16	=16	=16	=16	.
4G\	zan-	4.E/	van	2C/	e	1e\]	.	1g/]	.	.
4G\	doe	.	.	.	.	.	.	.	.	.
.	.	8F/	scher-	.	.	.	.	.	.	.
4.C/	van	4G/	zan-	4.E/	van	.	.	.	.	.
.	.	4G/	doin-	.	.	.	.	.	.	.
8D\	scher-	.	.	8F/	scher-	.	.	.	.	.
=17	=17	=17	=17	=17	=17	=17	=17	=17	=17	.
4E\	zan-	1c\	sie-	4G/	zan-	4r	.	4r	.	.
4E\	doin-	.	.	4G/	doin-	4g\	in-	4cc\	in-	.
[2F\	sie-	.	.	[2A/	sie-	[2f\	sie-	[2cc\	sie-	.
=18	=18	=18	=18	=18	=18	=18	=18	=18	=18	.
2F\]	.	1c\	me	2A/]	.	2f\]	.	2cc\]	.	.
2C/	me	.	.	2G/	me	2e\	me	2cc\	me	>
=19	=19	=19	=19	=19	=19	=19	=19	=19	=19	.
1r	.	2Bn\	Con	2.G/	Con	2.d\	Con	2.g/	Con	<HOM_4v
.	.	4B\	le	.	.	.	.	.	.	.
.	.	[4c\	gra-	4C/	le	4e\	le	4g/	le	.
=20	=20	=20	=20	=20	=20	=20	=20	=20	=20	.
1r	.	4c\]	.	2F/	gra-	2f\	gra-	2a/	gra-	.
.	.	4A/	tie	.	.	.	.	.	.	.
.	.	[2d\	gl'A-	4F/	tie	4f\	tie	4a/	tie	.
.	.	.	.	4D/	gl'A-	4f\	gl'A-	4a/	gl'A-	.
=21	=21	=21	=21	=21	=21	=21	=21	=21	=21	.
1r	.	2d\]	.	2.E/	mo-	1e\	mo-	[1g/	mo-	.
.	.	[2c\	mo-	.	.	.	.	.	.	.
.	.	.	.	4F/	.	.	.	.	.	.
=22	=22	=22	=22	=22	=22	=22	=22	=22	=22	.
1r	.	4c\]	.	1G/	.	1d\	.	1g/]	.	.
.	.	8Bn/L	.	.	.	.	.	.	.	.
.	.	8A/J	.	.	.	.	.	.	.	.
.	.	2Bn\	.	.	.	.	.	.	.	.
=23	=23	=23	=23	=23	=23	=23	=23	=23	=23	.
2r	.	2c\	ri	2C/	ri	2e\	ri	2g/	ri	>
[2C/	Con	[2G/	Con	[2E/	Con	[2c\	Con	[2g/	Con	<HOM_5v_rep
=24	=24	=24	=24	=24	=24	=24	=24	=24	=24	.
4C/]	.	4G/]	.	4E/]	.	4c\]	.	4g/]	.	.
4FF/	le	4F/	le	2F/	le	4c\	le	4a/	le	.
2BB-/	gra-	2F/	gra-	.	.	2d\	gra-	2f/	gra-	.
.	.	.	.	[4D/	gra-	.	.	.	.	.
=25	=25	=25	=25	=25	=25	=25	=25	=25	=25	.
4BB-/	tie	2B-\	tie	4D/]	.	4d\	tie	4f/	tie	.
4GG/	gl'A-	.	.	4G/	tie	4d\	gl'A-	2g/	gl'A-	.
4.AA/	mo-	2A/	gl'A-	4C/	gl'A-	2c\	mo-	.	.	.
.	.	.	.	[4c\	mo-	.	.	[4f/	mo-	.
8BB-/	.	.	.	.	.	.	.	.	.	.
=26	=26	=26	=26	=26	=26	=26	=26	=26	=26	.
1C/	.	1G/	mo-	4c\]	.	[1c\	ri	4f/]	.	.
.	.	.	.	8B-/L	.	.	.	8e/L	.	.
.	.	.	.	8A/J	.	.	.	8d/J	.	.
.	.	.	.	2G/	.	.	.	2e/	.	.
=27	=27	=27	=27	=27	=27	=27	=27	=27	=27	.
2FF/	ri	2F/	ri	2A/	ri	1c\]	.	[1f/	ri	>
4r	.	2c\	Per	2A/	Per	.	.	.	.	<HOM_3v
4F\	Per	.	.	.	.	.	.	.	.	.
=28	=28	=28	=28	=28	=28	=28	=28	=28	=28	.
4D\	ch'io	4d\	ch'io	4B-\	ch'io	1r	.	1f/]	.	.
4BB-/	co-	4d\	co-	4B-\	co-	.	.	.	.	.
2F\	s&igrave;	4c\	s&igrave;	4A/	s&igrave;	.	.	.	.	.
.	.	4A/	non	4c\	non	.	.	.	.	.
=29	=29	=29	=29	=29	=29	=29	=29	=29	=29	.
4D\	non	2d\	ri-	2.B-\	ri-	1r	.	1r	.	.
2G\	ri-	.	.	.	.	.	.	.	.	.
.	.	4d\	ver-	.	.	.	.	.	.	.
4F#\	ver-	[4d\	dir	4A/	ver-	.	.	.	.	.
=30	=30	=30	=30	=30	=30	=30	=30	=30	=30	.
4G\	dir	4d\]	.	4B-\	dir	1r	.	1r	.	.
4C/	l'Al-	4c\	l'Al-	4G/	l'Al-	.	.	.	.	.
4F\	lo-	2c\	lo-	4A/	lo-	.	.	.	.	.
4C/	ro	.	.	4G/	ro	.	.	.	.	.
=31	=31	=31	=31	=31	=31	=31	=31	=31	=31	.
2.D\	Scor-	2B-\	ro	2.F/	Scor-	1r	.	1r	.	.
.	.	[2A/	Scor-	.	.	.	.	.	.	.
4C/	.	.	.	4E/	.	.	.	.	.	.
=32	=32	=32	=32	=32	=32	=32	=32	=32	=32	.
1BB-/	.	4A/]	.	2.D/	.	2r	.	1r	.	.
.	.	8G/L	.	.	.	.	.	.	.	.
.	.	8F/J	.	.	.	.	.	.	.	.
.	.	2G/	.	.	.	2d\	Per-	.	.	<<CON_4v
.	.	.	.	4E/	.	.	.	.	.	.
=33	=33	=33	=33	=33	=33	=33	=33	=33	=33	.
1AA/	go	1A/	go	2F/	.	4c\	ch'io	2r	.	.
.	.	.	.	.	.	4A/	co-	.	.	.
.	.	.	.	2E/	go	2c\	s&igrave;	4r	.	>
.	.	.	.	.	.	.	.	4cc\	Per-	.
=34	=34	=34	=34	=34	=34	=34	=34	=34	=34	.
1r	.	4r	.	1r	.	4d\	non	4a/	ch'io	.
.	.	4d\	Per-	.	.	2f\	ri-	4f/	co-	.
.	.	4B-\	ch'io	.	.	.	.	2b-\	s&igrave;	.
.	.	4G/	co-	.	.	4e\	ver-	.	.	.
=35	=35	=35	=35	=35	=35	=35	=35	=35	=35	.
1r	.	4d\	s&igrave;	4r	.	4f\	dir	4a/	non	.
.	.	4A/	non	4A/	Per-	4e\	l'Al-	2cc\	ri-	.
.	.	4d\	ri-	4F/	ch'io	2d\	lo-	.	.	.
.	.	4d\	ver-	4D/	co-	.	.	4bn\	ver-	.
=36	=36	=36	=36	=36	=36	=36	=36	=36	=36	.
1r	.	2c\	dir	4A/	s&igrave;	2e\	ro	2cc\	dir	.
.	.	.	.	4A/	non	.	.	.	.	.
.	.	4r	.	4c\	ri-	2e\	non	2g/	l'Al-	.
.	.	4c\	l'Al-	4C/	ver-	.	.	.	.	.
=37	=37	=37	=37	=37	=37	=37	=37	=37	=37	.
1r	.	1d\	lo-	4G/	dir	2g\	ri-	4b-\	lo-	.
.	.	.	.	4G/	l'Al-	.	.	4b-\	ro	.
.	.	.	.	4D/	lo-	2f\	ver-	[2a/	Scor-	.
.	.	.	.	4D/	ro	.	.	.	.	.
=38	=38	=38	=38	=38	=38	=38	=38	=38	=38	.
1r	.	2d\	ro	1B-\	Scor-	2.d\	dir	4a/]	.	.
.	.	.	.	.	.	.	.	8g/L	.	.
.	.	.	.	.	.	.	.	8f/J	.	.
.	.	[2d\	Scor-	.	.	.	.	2g/	.	.
.	.	.	.	.	.	4e\	.	.	.	.
=39	=39	=39	=39	=39	=39	=39	=39	=39	=39	.
2.AA/	o-	4d\]	.	1A/	go	2f\	.	1a/	go	.
.	.	8c#\L	.	.	.	.	.	.	.	.
.	.	8B-\J	.	.	.	.	.	.	.	.
.	.	2c#\	.	.	.	2e\	l'Al-	.	.	.
4AA/	ve	.	.	.	.	.	.	.	.	.
=40	=40	=40	=40	=40	=40	=40	=40	=40	=40	.
1D\	spen-	1d\	go	4r	.	4f\	lo-	4r	.	.
.	.	.	.	2F/	o-	4d\	ro	4a/	o-	.
.	.	.	.	.	.	[2f\	Scor-	2a/	ve	.
.	.	.	.	4F/	ve	.	.	.	.	.
=41	=41	=41	=41	=41	=41	=41	=41	=41	=41	.
1C/	ta	1r	.	2A/	spen-	4f\]	.	1cc\	spen-	.
.	.	.	.	.	.	8e\L	.	.	.	.
.	.	.	.	.	.	8d\J	.	.	.	.
.	.	.	.	2G/	ta	2e\	.	.	.	.
=42	=42	=42	=42	=42	=42	=42	=42	=42	=42	.
1r	.	1r	.	4F/	s'a-	2f\	go	2a/	ta	>><CON_5v
.	.	.	.	4G/	vi-	.	.	.	.	.
.	.	.	.	4A/	v&ograve;	4c\	o-	4f/	s'a-	.
.	.	.	.	4B-\	mia	4d\	ve	4g/	vi-	.
=43	=43	=43	=43	=43	=43	=43	=43	=43	=43	.
4FF/	s'a-	2r	.	2c\	spe-	2f\	spen-	4a/	v&ograve;	.
4GG/	vi-	.	.	.	.	.	.	4b-\	mia	.
4AA/	v&ograve;	4C/	s'a-	2c\	me	2f\	ta	4cc\	spe-	.
4BB-/	mia	4D/	vi-	.	.	.	.	8b-/L	.	.
.	.	.	.	.	.	.	.	8a/J	.	.
=44	=44	=44	=44	=44	=44	=44	=44	=44	=44	.
[1C/	spe-	4E/	v&ograve;	4C/	s'a-	2r	.	2g/	.	.
.	.	4F/	mia	4D/	vi-	.	.	.	.	.
.	.	4G/	spe-	4E/	v&ograve;	4c\	s'a-	2g/	me	.
.	.	4F/	me	4F/	mia	4d\	vi-	.	.	.
=45	=45	=45	=45	=45	=45	=45	=45	=45	=45	.
1C/_	.	4E/	s'a-	2G/	spe-	4e\	v&ograve;	2r	.	.
.	.	4D/	vi-	.	.	4f\	mia	.	.	.
.	.	4E/	v&ograve;	2G/	me	4g\	spe-	2cc\	mia	.
.	.	4F/	mia	.	.	4a\	.	.	.	.
=46	=46	=46	=46	=46	=46	=46	=46	=46	=46	.
1C/]	.	4G/	spe-	4E/	s'a-	4g\	.	1cc\	spe-	.
.	.	4A/	.	4F/	vi-	2f\	.	.	.	.
.	.	2G/	.	4c\	v&ograve;	.	.	.	.	.
.	.	.	.	4c\	mia	4e\	.	.	.	.
=47	=47	=47	=47	=47	=47	=47	=47	=47	=47	.
1FF/	me	1F/	me	2c\	spe-	1f\	me	1a/	me	.
.	.	.	.	2c\	me	.	.	.	.	>
=48	=48	=48	=48	=48	=48	=48	=48	=48	=48	.
4r	.	4r	.	4r	.	4r	.	1r	.	<HOM_4v
4C/	N&egrave;	4G/	N&egrave;	4c\	N&egrave;	4e\	N&egrave;	.	.	.
[2GG/	strin-	[2B-\	strin-	[2d\	strin-	[2g\	strin-	.	.	.
=49	=49	=49	=49	=49	=49	=49	=49	=49	=49	.
2GG/]	.	2B-\]	.	2d\]	.	2g\]	.	1r	.	.
2GG/	goi	2B-\	goi	2d\	goi	2g\	goi	.	.	.
=50	=50	=50	=50	=50	=50	=50	=50	=50	=50	.
1D\	ra-	1A/	ra-	1d\	ra-	1f\	ra-	1r	.	.
=51	=51	=51	=51	=51	=51	=51	=51	=51	=51	.
2AA/	mi	2A/	mi	2c\	mi	[1e\	mi	2a/	N&egrave;	><CON_4v+1doub
2AA/	N&egrave;	4r	.	2A/	N&egrave;	.	.	[2cc\	strin-	.
.	.	[4E/	N&egrave;	.	.	.	.	.	.	.
=52	=52	=52	=52	=52	=52	=52	=52	=52	=52	.
2C/	strin-	4E/]	.	2G/	strin-	2e\]	.	2cc\]	.	.
.	.	2G/	strin-	.	.	.	.	.	.	.
2C/	goi	.	.	2G/	goi	2e\	N&egrave;	2cc\	goi	.
.	.	4G/	goi	.	.	.	.	.	.	.
=53	=53	=53	=53	=53	=53	=53	=53	=53	=53	.
1GG/	ra-	1G/	ra-	[1d\	ra-	2g\	strin-	1b-\	ra-	.
.	.	.	.	.	.	2g\	goi	.	.	.
=54	=54	=54	=54	=54	=54	=54	=54	=54	=54	.
1D\	.	1A/	.	1d\]	.	1f\	ra-	[1a/	mi	.
=55	=55	=55	=55	=55	=55	=55	=55	=55	=55	.
2AA/	mi	2A/	mi	2c\	mi	2e\	mi	1a/]	.	>
[2F\	che	[2A/	che	[2c\	che	[2f\	che	.	.	<HOM_4v
=56	=56	=56	=56	=56	=56	=56	=56	=56	=56	.
2F\]	.	2A/]	.	2c\]	.	2f\]	.	1r	.	.
2F\	con	2A/	con	2c\	con	2c\	con	.	.	.
=57	=57	=57	=57	=57	=57	=57	=57	=57	=57	.
2D\	tan-	4A/	tan-	2d\	tan-	2f\	tan-	1r	.	.
.	.	4B-\	toho-	.	.	.	.	.	.	.
2C/	toho	[2c\	no-	2G/	toho-	2e\	toho-	.	.	.
=58	=58	=58	=58	=58	=58	=58	=58	=58	=58	.
1G\	no-	4c\]	.	1G/	no-	1d\	no-	1r	.	.
.	.	8Bn/L	.	.	.	.	.	.	.	.
.	.	8A/J	.	.	.	.	.	.	.	.
.	.	2B\	.	.	.	.	.	.	.	.
=59	=59	=59	=59	=59	=59	=59	=59	=59	=59	.
2C/	ro	2c\	ro	2G/	ro	2e\	ro	1r	.	>
[2F\	che	[2c\	che	[2A/	che	[2f\	che	.	.	<HOM_4v_rep
=60	=60	=60	=60	=60	=60	=60	=60	=60	=60	.
2F\]	.	2c\]	.	2A/]	.	2f\]	.	1r	.	.
2D\	con	2F/	con	2A/	con	2f\	con	.	.	.
=61	=61	=61	=61	=61	=61	=61	=61	=61	=61	.
4D\	tan-	2B-\	tan-	2F/	tan-	2d\	tan-	1r	.	.
4E\	toho-	.	.	.	.	.	.	.	.	.
[2F\	no-	2A/	toho-	2c\	toho-	2c\	toho-	.	.	.
=62	=62	=62	=62	=62	=62	=62	=62	=62	=62	.
4F\]	.	1G/	no-	1c\	no-	1g\	no-	1r	.	.
8E\L	.	.	.	.	.	.	.	.	.	.
8D\J	.	.	.	.	.	.	.	.	.	.
2E\	.	.	.	.	.	.	.	.	.	.
=63	=63	=63	=63	=63	=63	=63	=63	=63	=63	.
2F\	ro	2A/	ro	2A/	ro	2c\	ro	2r	.	>
[2C/	che	[2c\	che	2G/	che	[2e\	che	[2cc\	che	<HOM_5v_rep
=64	=64	=64	=64	=64	=64	=64	=64	=64	=64	.
2C/]	.	2c\]	.	2A/	con	2e\]	.	2cc\]	.	.
2D\	con	2A/	con	[2F/	tan-	2f\	con	2f/	con	.
=65	=65	=65	=65	=65	=65	=65	=65	=65	=65	.
2BB-/	tan-	2B-\	tan-	2F/]	.	4d\	tan-	2b-\	tan-	.
.	.	.	.	.	.	4e\	toho-	.	.	.
2FF/	toho-	2c\	toho-	2F/	toho-	[2f\	no-	2a/	toho-	.
=66	=66	=66	=66	=66	=66	=66	=66	=66	=66	.
1C/	no-	1c\	no-	1G/	no-	4f\]	.	1g/	no-	.
.	.	.	.	.	.	8e\L	.	.	.	.
.	.	.	.	.	.	8d\J	.	.	.	.
.	.	.	.	.	.	2e\	.	.	.	.
=67	=67	=67	=67	=67	=67	=67	=67	=67	=67	.
1FF/	ro	1c\	ro	1F/	ro	1f\	ro	1a/	ro	>
=68	=68	=68	=68	=68	=68	=68	=68	=68	=68	.
4r	.	4r	.	4r	.	4r	.	1r	.	.
4C/	N&egrave;	4c\	N&egrave;	4G/	N&egrave;	4e\	N&egrave;	.	.	<HOM_4v
[2GG/	strin-	[2d\	strin-	[2B-\	strin-	[2g\	strin-	.	.	.
=69	=69	=69	=69	=69	=69	=69	=69	=69	=69	.
2GG/]	.	2d\]	.	2B-\]	.	2g\]	.	1r	.	.
2GG/	goi	2d\	goi	2B-\	goi	2g\	goi	.	.	.
=70	=70	=70	=70	=70	=70	=70	=70	=70	=70	.
1D\	ra-	1d\	ra-	1A/	ra-	1f\	ra-	1r	.	.
=71	=71	=71	=71	=71	=71	=71	=71	=71	=71	.
2AA/	mi	2c\	mi	2A/	mi	[1e\	mi	2a/	N&egrave;	><HOMlib_5v
2AA/	N&egrave;	2A/	N&egrave;	4r	.	.	.	[2cc\	strin-	.
.	.	.	.	[4E/	N&egrave;	.	.	.	.	.
=72	=72	=72	=72	=72	=72	=72	=72	=72	=72	.
2C/	strin-	2G/	strin-	4E/]	.	2e\]	.	2cc\]	.	.
.	.	.	.	2G/	strin-	.	.	.	.	.
2C/	goi	2G/	goi	.	.	2e\	N&egrave;	2cc\	goi	.
.	.	.	.	4G/	goi	.	.	.	.	.
=73	=73	=73	=73	=73	=73	=73	=73	=73	=73	.
1GG/	ra-	[1d\	ra-	1G/	ra-	2g\	strin-	1b-\	ra-	.
.	.	.	.	.	.	2g\	goi	.	.	.
=74	=74	=74	=74	=74	=74	=74	=74	=74	=74	.
1D\	.	1d\]	.	1A/	.	1f\	ra-	[1a/	mi	.
=75	=75	=75	=75	=75	=75	=75	=75	=75	=75	.
2AA/	mi	2c\	mi	2A/	mi	2e\	mi	1a/]	.	>
[2F\	che	[2c\	che	[2A/	che	[2f\	che	.	.	<HOM_4v
=76	=76	=76	=76	=76	=76	=76	=76	=76	=76	.
2F\]	.	2c\]	.	2A/]	.	2f\]	.	1r	.	.
2F\	con	2c\	con	2A/	con	2c\	con	.	.	.
=77	=77	=77	=77	=77	=77	=77	=77	=77	=77	.
2D\	tan-	2d\	tan-	4A/	tan-	2f\	tan-	1r	.	.
.	.	.	.	4B-\	toho-	.	.	.	.	.
2C/	toho-	2G/	toho-	[2c\	no-	2e\	toho-	.	.	.
=78	=78	=78	=78	=78	=78	=78	=78	=78	=78	.
1G\	no-	1G/	no-	4c\]	.	1d\	no-	1r	.	.
.	.	.	.	8Bn/L	.	.	.	.	.	.
.	.	.	.	8A/J	.	.	.	.	.	.
.	.	.	.	2Bn\	.	.	.	.	.	.
=79	=79	=79	=79	=79	=79	=79	=79	=79	=79	.
2C/	ro	2G/	ro	2c\	ro	2e\	ro	1r	.	>
[2F\	che	[2A/	che	[2c\	che	[2f\	che	.	.	<HOM_4v_rep
=80	=80	=80	=80	=80	=80	=80	=80	=80	=80	.
2F\]	.	2A/]	.	2c\]	.	2f\]	.	1r	.	.
2D\	con	2A/	con	2F/	con	2f\	con	.	.	.
=81	=81	=81	=81	=81	=81	=81	=81	=81	=81	.
4D\	tan-	2F/	tan-	2B-\	tan-	2d\	tan-	1r	.	.
4E\	toho-	.	.	.	.	.	.	.	.	.
[2F\	no-	2c\	toho-	2A/	toho-	2c\	toho-	.	.	.
=82	=82	=82	=82	=82	=82	=82	=82	=82	=82	.
4F\]	.	1c\	no-	1G/	no-	1g\	no-	1r	.	.
8E\L	.	.	.	.	.	.	.	.	.	.
8D\J	.	.	.	.	.	.	.	.	.	.
2E\	.	.	.	.	.	.	.	.	.	.
=83	=83	=83	=83	=83	=83	=83	=83	=83	=83	.
2F\	ro	2A/	ro	2A/	ro	2c\	ro	2r	.	>
[2C/	che	2G/	che	[2c\	che	[2e\	che	[2cc\	che	<HOM_5v_rep
=84	=84	=84	=84	=84	=84	=84	=84	=84	=84	.
2C/]	.	2A/	con	2c\]	.	2e\]	.	2cc\]	.	.
2D\	con	[2F/	tan-	2A/	con	2f\	con	2f/	con	.
=85	=85	=85	=85	=85	=85	=85	=85	=85	=85	.
2BB-/	tan-	2F/]	.	2B-\	tan-	4d\	tan-	2b-\	tan-	.
.	.	.	.	.	.	4e\	toho-	.	.	.
2FF/	toho-	2F/	toho-	2c\	toho-	[2f\	no-	2a/	toho-	.
=86	=86	=86	=86	=86	=86	=86	=86	=86	=86	.
1C/	no-	1G/	no-	1c\	no-	4f\]	.	1g/	no-	.
.	.	.	.	.	.	8e\L	.	.	.	.
.	.	.	.	.	.	8d\J	.	.	.	.
.	.	.	.	.	.	2e\	.	.	.	.
=87	=87	=87	=87	=87	=87	=87	=87	=87	=87	.
1FF/	ro.	1F/	ro.	1c\	ro.	1f\	ro.	1a/	ro.	>
==	==	==	==	==	==	==	==	==	==	==
*-	*-	*-	*-	*-	*-	*-	*-	*-	*-	*-
